assets/resources/Designs/pls/Frame.svg

<svg xmlns="http://www.w3.org/2000/svg" width="208" height="275" fill="none"><path fill="#EBF3FA" d="M0 0h208v275H0z" style="fill:#ebf3fa;fill:color(display-p3 .9216 .9529 .9804);fill-opacity:1"/><path fill="#F2FAFF" d="M-3964-815c0-1.104.9-2 2-2h5343c1.1 0 2 .895 2 2v2725c0 1.1-.9 2-2 2h-5343c-1.1 0-2-.9-2-2z" style="fill:#f2faff;fill:color(display-p3 .949 .9804 1);fill-opacity:1"/><path fill="#fff" fill-opacity=".1" d="M-3962-816h5343v-2h-5343zm5344 1v2725h2V-815zm-1 2726h-5343v2h5343zm-5344-1V-815h-2v2725zm1 1c-.55 0-1-.45-1-1h-2c0 1.66 1.34 3 3 3zm5344-1c0 .55-.45 1-1 1v2c1.66 0 3-1.34 3-3zm-1-2726c.55 0 1 .448 1 1h2c0-1.657-1.34-3-3-3zm-5343-2c-1.66 0-3 1.343-3 3h2c0-.552.45-1 1-1z" style="fill:#fff;fill-opacity:.1"/><path fill="#3E9658" d="M133 59H0v133h133z" style="fill:#3e9658;fill:color(display-p3 .2438 .5867 .3467);fill-opacity:1"/><path fill="#2A64AA" d="M208 0H75v133h133z" style="fill:#2a64aa;fill:color(display-p3 .1645 .3904 .6664);fill-opacity:1"/><path fill="#E32020" d="M174 178H86v97h88z" style="fill:#e32020;fill:color(display-p3 .8917 .1272 .1272);fill-opacity:1"/></svg>

<svg width="208" height="275" viewBox="0 0 208 275" fill="none" xmlns="http://www.w3.org/2000/svg">
<rect width="208" height="275" fill="#EBF3FA" style="fill:#EBF3FA;fill:color(display-p3 0.9216 0.9529 0.9804);fill-opacity:1;"/>
<g id="Dwellane">
<path d="M-3964 -815C-3964 -816.104 -3963.1 -817 -3962 -817H1381C1382.1 -817 1383 -816.105 1383 -815V1910C1383 1911.1 1382.1 1912 1381 1912H-3962C-3963.1 1912 -3964 1911.1 -3964 1910V-815Z" fill="#F2FAFF" style="fill:#F2FAFF;fill:color(display-p3 0.9490 0.9804 1.0000);fill-opacity:1;"/>
<path d="M-3962 -816H1381V-818H-3962V-816ZM1382 -815V1910H1384V-815H1382ZM1381 1911H-3962V1913H1381V1911ZM-3963 1910V-815H-3965V1910H-3963ZM-3962 1911C-3962.55 1911 -3963 1910.55 -3963 1910H-3965C-3965 1911.66 -3963.66 1913 -3962 1913V1911ZM1382 1910C1382 1910.55 1381.55 1911 1381 1911V1913C1382.66 1913 1384 1911.66 1384 1910H1382ZM1381 -816C1381.55 -816 1382 -815.552 1382 -815H1384C1384 -816.657 1382.66 -818 1381 -818V-816ZM-3962 -818C-3963.66 -818 -3965 -816.657 -3965 -815H-3963C-3963 -815.552 -3962.55 -816 -3962 -816V-818Z" fill="white" fill-opacity="0.1" style="fill:white;fill-opacity:0.1;"/>
<g id="Frame">
<path id="mygreen" d="M133 59H0V192H133V59Z" fill="#3E9658" style="fill:#3E9658;fill:color(display-p3 0.2438 0.5867 0.3467);fill-opacity:1;"/>
<path id="myblue" d="M208 0H75V133H208V0Z" fill="#2A64AA" style="fill:#2A64AA;fill:color(display-p3 0.1645 0.3904 0.6664);fill-opacity:1;"/>
<path id="red" d="M174 178H86V275H174V178Z" fill="#E32020" style="fill:#E32020;fill:color(display-p3 0.8917 0.1272 0.1272);fill-opacity:1;"/>
</g>
</g>
</svg>
